X:1
T:LA PALOMA 
T:HABANERA
T:Sebastian Iradier                                                                                             Arrangement choral: Jean-Paul Finck
%%score 1 2 3
L:1/8
M:2/4
K:C
V:1 treble-8 nm="Ténor" snm="T."
V:2 treble-8 nm="Baryton" snm="Bar."
V:3 bass nm="Basse" snm="B."
V:1
 G |: G4- | G/EF/ GA | B/cA/ BG | F4- | F2 z d | d4- | d/ec/ dB | (c/B)A/ GF |1 E4- | E2 z G :|2 %11
w: Cuan-|do|_ sa- li- de la.Ha-|ba- na, val- ga- me|Dios|_ na-|die|_ me.ha vis- to sa-|lir _ si no fui|yo|_ Y.u-|
w: |na|_ lin- da gua- chi-|nan- ga a- lla voy|yo|_ que|se|_ vi- no tras de|mi _ que si se|||
 E4- || E2 z2 |: c/cc/ cB | d/dc/ BA | A<G- G2- | G3 z | B/BB/ BA | A/GG/ GA |1 (G/F/) E3- | %20
w: nor.|_|Si.a tu ven- ta- na|lle- ga u- na pa-|lo- ma _|_|tra- ta- la con ca-|ri- no que.es mi per-|so _ na|
w: ||Cuén- ta- le tus a-|mo- re bien de mi|vi- da _|_|co- ro- na la de|flo- res que.es co- sa||
 E3 z :|2 (G/F/) E3 || z/ GG/ G/A^F/ || G4 | z/ GG/ G/GA/ | B2 d2- | d/ec/ d/Bc/ | A/Bc/ ed | %28
w: _|mi _ a|Ay! chi- ni- ta que|si|Ay! que da- me tu.a-|mor! Ay|_ y! que ven- te con-|mi- go chi- ni- ta,|
w: ||||||||
 z/ D/E/F/ A>G | E4 | z/ GG/ G/A^F/ | G4 | z/ GG/ G/GA/ | B2 d2- | d/[df][ce]/ [Bd]/[ce][Ac]/ | %35
w: a- don- de vi- vo|yo.|Ay! chi- ni- ta que|si|Ay! que da- me tu.a-|mor Ay!|_ Ay! que ven- te con-|
w: |||||||
 [Bd]/[GB][Ac]/ [ce][Bd] | D/EF/ AG | c4- | c3 z | B4- | B2 z B | .c z z2 |] %42
w: mi- go chi- ni- ta|a- don- de vi- vo|yo|_|Ah|_ Ay!|Ay!|
w: |||||||
V:2
 E |: E4- | E/CD/ EF | G/AF/ GE | D4- | D2 z B | B4- | B/cA/ BG | (A/G)F/ ED |1 C4- | C2 z E :|2 %11
w: Cuan-|do|_ sa- li- de la.Ha-|ba- na, val- ga- me|Dios|_ na-|die|_ me.ha vis- to sa-|lir _ si no fui|yo|_ Y.u-|
w: |na|_ lin- da gua- chi-|nan- ga a- lla voy|yo|_ que|se|_ vi- no tras de|mi _ que si se|||
 C4- || C2 z2 |: E/EE/ EG | B/BA/ ^FF | F<F- F2- | F3 z | G/GG/ GF | F/EE/ EF |1 (E/D/) C3- | %20
w: nor.|_|Si.a tu ven- ta- na|lle- ga u- na pa-|lo- ma _|_|tra- ta- la con ca-|ri- no que.es mi per-|so _ na|
w: ||Cuén- ta- le tus a-|mo- re bien de mi|vi- da _|_|co- ro- na la de|flo- res que.es co- sa||
 C3 z :|2 (E/D/) C3 || z/ EE/ E/F^D/ || E4 | z/ EE/ E/EF/ | G2 B2- | B/cA/ B/GA/ | F/GA/ cB | %28
w: _|mi _ a|Ay! chi- ni- ta que|si|Ay! que da- me tu.a-|mor! Ay|_ y! que ven- te con-|mi- go chi- ni- ta,|
w: ||||||||
 z/ B,/C/D/ F>E | C4 | z/ EE/ E/F_E/ | E4 | z/ EE/ E/EF/ | G2 B2- | B/AG/ F/GE/ | F/DE/ GF | %36
w: a- don- de vi- vo|yo.|Ay! chi- ni- ta que|si|Ay! que da- me tu.a-|mor Ay!|_ Ay! que ven- te con-|mi- go chi- ni- ta|
w: ||||||||
 B,/CD/ FF | E4- | E3 z | F4- | F2 z F | .E z z2 |] %42
w: a- don- de vi- vo|yo|_|Ah|_ Ay!|Ay!|
w: ||||||
V:3
 G, |: C,>C, G,G,, | C,>C, G,G,, | C,/C,C,/ G,G,, | D,>D, G,G,, | D,>D, G,G,, | D,/D,D,/ G,G,, | %7
w: Cuan-|do, cuan- do sa-|li de la Ha-|ba- na, val- ga- me|Dios, vall- ga- me|Dios, na- die me.a|vis- to, na- die me.ha|
w: |na, y.u- na lin-|da gua- chi- nan-|ga _ a lla voy|yo, que se vi-|no tras, que se|no tras, que se vi|
 D,>G,- G,G,, | D,>D, G,G,, |1 C,>C, G,G,, | C,2 z G, :|2 C,>C, G,G,, || C,2 z2 |: C,/C,C,/ G,G,, | %14
w: vis- to _ sa-|lir si no fui|you, si no fui|yo. Y.u|nor, que si se-|nor.|Si.a tu ven- ta- na|
w: no- tras _ de|mi que si se|||||Cuén- ta- le tus a-|
 C,/C,C,/ _E,E, | D,/D,D,/ G,G,, | D,>G,- G,2 | D,/D,D,/ G,G,, | D,/D,D,/ G,G,, |1 C,>G, G,G,, | %20
w: lle- ga u- na pa-|lo- ma, u- na pa-|lo- ma _|tra- ta- la con- ca-|ri- no que.es mi per-|so- na, mi per-|
w: mo- re bien de mi|vi- da, bien de mi|vi- da _|co- ro- na- la de|flo- res que.es co- sa||
 C,>G,- G,G,, :|2 C,>G,- G,G,, || .C, z z2 || z/ C,C,/ G,/A,^F,/ | G,>G, G,/G,G,/ | D,>D, G,G,, | %26
w: so- na _ _|mi- a _ Ay!|Ay!|Ay! chi- ni- ta que|si, que da- me tu.a-|mor, ven- te con-|
w: ||||||
 D,/D,D,/ G,G,, | D,/D,D,/ G,G,, | D,>D, G,G,, | C,2 G,G,, | .C, z z2 | z/ C,C,/ G,/A,^F,/ | %32
w: mi- go, ven- te con-|mi- go chi- ni- ta.a-|don- de vi- vo|yo, vi- vo|yo.|Ay! chi- ni- ta que|
w: ||||||
 G,>G, G,/G,G,/ | D,>D, G,G,, | D,/D,D,/ G,G,, | D,/D,D,/ G,G,, | D,>D, G,G,, | C,>G,, C,G,, | %38
w: si, que da- me tu.a|mor, ven- te con-|mi- go, ven- te con-|mi- go chi- ni- ta.a|don- de vi- vo|yo. La- la la|
w: ||||||
 C,/C,G,,/ C,G,, | D,>G,, D,G,, | D,/D,G,,/ D,G,, | C, z z2 |] %42
w: la- la la- la la,|la, la- la la|la- la, la- la, Ay!|Ay!|
w: ||||

